X:1
T:Title
%%score 1 { 2 | 3 }
L:1/8
Q:1/4=63
M:2/4
K:Db
V:1 treble nm="Singstimme\nVoice"
V:2 treble nm="Pianoforte"
V:3 bass 
V:1
"^Allegro agitato." z | z4 | z4 | z4 | z2 z A, | F2 E2 | D2 C D | (B2 F2) | z2 z F | F2 E2 | %10
 D2 E F | B2 z2 | z2 B B | B3 B | d3 B | A2 z2 | z2 z E | =D3 D | E2 z E | _F3 F | G2 z2 | %21
 _c3 __E | G3 __E | __B2 z2 | z2 z G | G3 F | A3 F | d4- | d2 z2 | d3 F | B3 F | A4 | z4 | A4- | %34
 A3 G | (F3 E) | D2 z2 | A2 F2 | (D3 F) | (B2 F2) | E3 E | (E2 F=G) | A2 A2 | A4- | A2 z2 | z4 | %46
 z4 | !fermata!z4 |] %48
V:2
!mf! [A,D] | ([G,DG]2 [A,DF]2) |!>(! ([A,DF]2 [G,CE]2)!>)! |!mp!!>(! (([F,A,E]2 [F,A,D]2))!>)! | %4
 (([F,A,D]2 [E,A,C])) z | (3([F,A,DF][F,A,DF][F,A,DF] (3[G,A,CE][G,A,CE][G,A,CE]) | %6
 (3([F,A,D][F,A,D][F,A,D] (3[F,A,C][F,A,C][F,A,D]) | %7
 (3([A,B,DF][A,B,DF][A,B,DF] (3[A,B,DF][A,B,DF][A,B,DF]) | %8
 (3([A,B,DF][A,B,DF][A,B,DF] (3[A,B,DF][A,B,DF][A,B,DF]) | %9
 (3([A,_CDF][A,CDF][A,CDF] (3[G,B,E][G,B,E][G,B,E]) | %10
 (3([F,A,D][F,A,D][F,A,D] (3[F,A,E][F,A,E][F,A,F]) | %11
 (3([A,B,D][A,B,D][A,B,D] (3[A,B,D][A,B,D][A,B,D]) | %12
 (3([G,B,D][G,B,D][G,B,D] (3[G,B,D][G,B,D][G,B,D]) | %13
 (3([=G,B,D][G,B,D][G,B,D] (3[G,B,D][G,B,D][G,B,D]) | %14
 (3([=G,B,D][G,B,D][G,B,D] (3[G,B,D][G,B,D][G,B,D]) | %15
 (3([A,_CE][A,CE][A,CE] (3[A,CE][A,CE][A,CE]) | (3([A,_CE][A,CE][A,CE] (3[A,CE][A,CE][A,CE]) | %17
 (3([F,A,_C=D][F,A,CD][F,A,CD] (3[F,A,CD][F,A,CD][F,A,CD]) | %18
 (3([G,B,E][G,B,E][G,B,E] (3[G,B,E][G,B,E][G,B,E]) | %19
 (3([__A,B,_F][A,B,F][A,B,F] (3[A,B,F][A,B,F][A,B,F]) | %20
 (3([G,__B,G][G,B,G][G,B,G] (3[G,B,G][G,B,G][G,B,G]) | %21
 (3([G,__B,__EG][G,B,EG][G,B,EG] (3[G,B,EG][G,B,EG][G,B,EG]) | %22
 (3([__B,__EG][B,EG][B,EG] (3[B,EG][B,EG][B,EG]) | %23
 (3([__B,__D_F__B][B,DFB][B,DFB] (3[B,DFB][B,DFB][B,DFB]) | %24
 (3([__B,__D_F__B][B,DFB][B,DFB] (3[B,DFB][B,DFB][B,DFB]) | %25
 (3([A,C__EF][A,CEF][A,CEF] (3[A,CEF][A,CEF][A,CEF]) | %26
 (3([A,_C__EF][A,CEF][A,CEF] (3[A,CEF][A,CEF][A,CEF]) | %27
!<(! (3([B,DF][B,DF][B,DF] (3[B,DF][B,DF][B,DF])!<)! | %28
 (3([B,DF][B,DF][B,DF] (3[B,DF][B,DF][B,DF]) | (3([B,DFA][B,DFA][B,DFA] (3[B,DFA][B,DFA][B,DFA]) | %30
 (3([B,DFA][B,DFA][B,DFA] (3[B,DFA][B,DFA][B,DFA]) | (3([CEGA][CEGA][CEGA] (3[CEGA][CEGA][CEGA]) | %32
 (3([CEGA][CEGA][CEGA] (3[CEGA][CEGA][CEGA]) | (3([CEGA][CEGA][CEGA] (3[CEGA][CEGA][CEGA]) | %34
 (3([CEGA][CEGA][CEGA] (3[CEGA][CEGA][CEGA]) |!>(! (3([DF][DF][DF] (3[A,CE][A,CE]!>)![A,CE]) | %36
!mf! (3[F,A,DF]!mf!([F,A,DF][F,A,DF] (3[F,A,DF][F,A,DF][F,A,DF]) | %37
 (3([F,A,DF][F,A,DF][F,A,DF] (3[F,A,DF][F,A,DF][F,A,DF]) | %38
 (3([F,B,DF][F,B,DF][F,B,DF] (3[F,B,DF][F,B,DF][F,B,DF]) | %39
 (3([A,B,DF][A,B,DF][A,B,DF] (3[A,B,DF][A,B,DF][A,B,DF]) | %40
 (3([G,B,DE][G,B,DE][G,B,DE] (3[G,B,DE][G,B,DE][G,B,DE]) | %41
 (3([=G,B,DE][G,B,DE][G,B,DE] (3[G,B,DF][G,B,DF][G,B,DF]) | %42
!<(! (3([A,CEA][A,CEA][A,CEA] (3[A,CFA][A,CGA]!<)!!>(![A,CGA])!>)! | %43
 (3([A,DFA][A,DFA][A,DFA] (3[A,DFA][A,DFA][A,DFA]) | %44
 (3([A,CEA][A,CEA][A,CEA] (3[A,CFA][A,CGA][A,CGA]) | %45
!f!!<(! (3[A,DFA][A,DFA][A,DFA] (3[A,DFA][A,DFA][A,DFA]!<)! | %46
!>(! (3[A,DFA][A,DFA][A,DFA] (3[A,DFA][A,DFA][A,DFA]!>)! | !fermata![A,DFA]4 |] %48
V:3
 [F,,A,,D,] | ([G,,D,E,]2 [A,,D,F,]2) | ([A,,D,F,]2 [G,,A,,E,]2) | ([F,,A,,E,]2 [F,,A,,D,]2) | %4
 ([F,,A,,-D,]2 [E,,A,,C,]) z | [D,,,D,,]4 | [D,,,D,,]4 | [B,,,,B,,,]4 | [B,,,,B,,,]4 | [D,,,D,,]4 | %10
 [D,,,D,,]4 | [G,,,G,,]4 | [G,,,G,,]4 | [_F,,,_F,,]4 | [E,,,E,,]4 | [A,,,A,,]4- | [A,,,A,,]4 | %17
 [A,,,A,,]4 | [G,,,G,,]4 | [__E,,,__E,,]4 | [__E,,,__E,,]4 | [_C,,,_C,,]4 | [__E,,,__E,,]4 | %23
 [__B,,,__B,,]4- | [B,,,B,,]4 | [A,,,A,,]4 | [F,,,F,,]4 | [B,,,B,,]4- | [B,,,B,,]4 | [B,,,B,,]4 | %30
 [D,,,D,,]4 | [A,,,A,,]4- | [A,,,A,,]4 | [E,,,E,,]4- | [E,,,E,,]4 | (F,,,2 A,,,2) | (D,,,2 D,,2) | %37
 [C,,,C,,]4 | [B,,,,B,,,]4 | [B,,,,B,,,]4 | [E,,,E,,]4 | [E,,,E,,]4 | [A,,,A,,]4 | [D,,,D,,]4 | %44
 [A,,,A,,]4 | [D,,,D,,]2 ([A,,,A,,]2 | [D,,D,]2) ([A,,,A,,]2 | !fermata![D,,,D,,]4) |] %48

